X:502
T: Quadrille (206), S. 449f
N: T0390
O: Luxemburg
S: Singendes Volk, Esch-Alzette, 1937 posth.]
N: Hesperingen, fff Bach-Oberweis, 15.4.1934
R: Tanz-, Spiellied]
M: 2/4
L: 1/8
K: F
c | fcAc | FFz
A | AcGA | F2z
c | fcAc | FFz
A | AcGA | F2z
c | ccAc | ccA
d | dddd | e2z
c | ccAc | ccA
c | cfed | c2z2
FFFA | GGGB
AcBd | dcc2
ffeB
ddcA
GABG | GFF2

